X:308
T:Sweeney's dream
R:Reel
S:Chieftains 9, Trk. 8
D:Chieftains 9, Trk. 8
Z:Transcription, chords:Mike Long
M:C|
L:1/8
K:D
"D"dF ~F2 ABdf|"G"{a}gfeg "A"fdBc|\
"D"dF ~F2 ABdB|"D"AFDF "A"(3(EFE) D2:|\
"D"fa ~a2 afdf|"G"{a}gfed "A"cdeg|
"D"fa ~a2 bf ~f2|"G"{a}gfeg "A"fdde|\
"D"fa ~a2 bf ~f2|"G"{a}gfeg "A"fdBc|\
"D"dF ~F2 ABdf|"G"{a}gfeg "F#m"f3 e|]
